!!!COM: Hugo Wolf
!!!CNT: Deutscher
!!!TXO: Deutsche 
!!!OTL: Liebesglu2ck
!!!ODT: 1888/09/27
!!!ONM: No. 16
!!!LYR: Joseph von Eichendorff
!!!ENC: Brian Bice
!!!YOR: 45 Songs on Poems of Goethe and Eichendorff, Dover Publications, 1995
!!NB: Vocal melody and text only encoded.
**kern	**silbe
*clefG2	*
*k[f#c#g#d#]	*
*M12/8	*
=5	=5
{8b	{Ich
8.b	hab'
16b	ein
8a#	Lieb-
8an	-chen
[8g#	lieb
8g#]	|
8f#	recht
8e	von
4d#	Her-
8dn	-zen,
=6	=6
8ddn	hell-
8.ddn	-fri-
16ddn	-sche
8.cc#	Au-
16ccn	-gen
[8b	hat's
8b]	|
8ddn	wie
8b	zwei
4a	Ker-
8g#}	-zen,}
=7	=7
{8ee	{und
8.ee	wo
16ee	sie
4ee	spie-
8e	-lend
8ee	strei-
8ee	-fen
8ff#	das
4ee	Feld,
[8ee	ach
=8	=8
8ee]	|
8ee	wie
8ee	so
4ee	lu-
8gg#	-stig
4.dd#	gla2n-
4dd#	-zet
8ee#	die
=9	=9
2.dd#}	Welt!}
2.r	.
=10	=10
{8f#	{Wie
8f#	in
8g#	der
4a	Wald-
8b	-nacht
8.b#	zwi-
16b#	-schen
8cc#	den
4cc##	Schlu2f-
8dd#	-ten
=11	=11
8g#	plo2tz-
8g#	-lich
8a#	die
4b	Ta2-
8cc#	-ler
8dd#	son-
8dd#	-nig
8ee	sich
4ee#	klu2f-
8ff#}	-ten,}
=12	=12
{8ggn	{fun-
8.ggn	-keln
16ggn	die
4ggn	Stro2-
8gn	-me,
8ggn	rauscht
8.ggn	him-
16ggn	-mel-
4.ggn	-wa2rts
=13	=13
[4.ggn	blu2-
8ggn]	|
8ggn	-hen-
8ggn	-de
(8ggn	Wild-
[4ff#)	|
8ff#]	|
4ee}	-nis}
=14	=14
4.r	.
{[4.gg#	{so
8gg#]	|
[4ff#	ist
8ff#]	|
4b	mein
=15	=15
[4.ee	Herz!
8ee]}	|}
4r	.
2.r	.
=16	=16
{8g#	{Wie
8b#	vom
8cc#	Ge-
8.dd#	-bir-
16dd#	-ge
8dd#	ins
4dd#	Meer
8ee#	zu
4dd#	schau-
8dd#	-en,
=17	=17
8f#	wie
8bn	wann
8cc#	der
4dd#	See-
8ee#	-falk,
8ff#	han-
8.ff#	-gend
16ff#	im
4ff#	Blau-
8ff#}	-en,}
=18	=18
{8ff#	{zu-
8.ff#	-ruft
16ff#	der
8ff#	da2m-
8.ff#	-mern-
16ff#	-den
8ff#	Erd'
8ff#	wo
8ff#	sie
[4.ggn	blieb,
=19	=19
*M3/8	*
8ggn]}	|}
8r	.
8r	.
=20	=20
*M12/8	*
{8ee	{so
[4gg#	un-
4gg#]	|
8ff#	-er-
[4.ee	-mess-
8ee]	|
8dd#	-lich
8cc#	ist
=21	=21
[2.ee	rech-
4.ee_	|
8ee]	|
4dd#	-te
=22	=22
4.ee}	Lieb'!}
4.r	.
2.r	.
*-	*-
